pics/geometrie/pyramide-formen.svg

<?xml version="1.0" encoding="UTF-8" standalone="no"?>
<!-- Created with Inkscape (http://www.inkscape.org/) -->

<svg
   xmlns:ns0="http://www.iki.fi/pav/software/textext/"
   xmlns:dc="http://purl.org/dc/elements/1.1/"
   xmlns:cc="http://creativecommons.org/ns#"
   xmlns:rdf="http://www.w3.org/1999/02/22-rdf-syntax-ns#"
   xmlns:svg="http://www.w3.org/2000/svg"
   xmlns="http://www.w3.org/2000/svg"
   xmlns:sodipodi="http://sodipodi.sourceforge.net/DTD/sodipodi-0.dtd"
   xmlns:inkscape="http://www.inkscape.org/namespaces/inkscape"
   width="210mm"
   height="297mm"
   id="svg2"
   version="1.1"
   inkscape:version="0.48.3.1 r9886"
   sodipodi:docname="pyramide-formen.svg">
  <sodipodi:namedview
     id="base"
     pagecolor="#ffffff"
     bordercolor="#666666"
     borderopacity="1.0"
     inkscape:pageopacity="0.0"
     inkscape:pageshadow="2"
     inkscape:zoom="0.42419454"
     inkscape:cx="677.37527"
     inkscape:cy="454.53442"
     inkscape:document-units="px"
     inkscape:current-layer="layer1"
     showgrid="false"
     inkscape:window-width="1280"
     inkscape:window-height="974"
     inkscape:window-x="0"
     inkscape:window-y="0"
     inkscape:window-maximized="1"
     showguides="false"
     inkscape:guide-bbox="true"
     inkscape:snap-nodes="true"
     inkscape:object-paths="true"
     inkscape:object-nodes="true"
     inkscape:snap-smooth-nodes="true"
     inkscape:snap-midpoints="true"
     inkscape:snap-global="true"
     inkscape:snap-page="true">
    <sodipodi:guide
       id="guide5020"
       orientation="1052.3622,0"
       position="0.0,0" />
    <sodipodi:guide
       id="guide5022"
       orientation="1052.3622,0"
       position="372.0472,0" />
    <sodipodi:guide
       id="guide5024"
       orientation="1052.3622,0"
       position="744.0945,0" />
    <sodipodi:guide
       id="guide5026"
       orientation="0,744.0945"
       position="0,0.0" />
    <sodipodi:guide
       id="guide5028"
       orientation="0,744.0945"
       position="0,526.1811" />
    <sodipodi:guide
       id="guide5030"
       orientation="0,744.0945"
       position="0,1052.3622" />
    <sodipodi:guide
       orientation="1,0"
       position="558.07084,821.26415"
       id="guide5198" />
    <sodipodi:guide
       orientation="0,1"
       position="30.670302,421.90926"
       id="guide4269" />
    <sodipodi:guide
       orientation="0,1"
       position="68.636146,630.45291"
       id="guide4271" />
  </sodipodi:namedview>
  <title
     id="title3118">Pyramide-Formen</title>
  <defs
     id="defs4">
    <marker
       style="overflow:visible"
       id="Arrow2Mstart"
       refX="0.0"
       refY="0.0"
       orient="auto"
       inkscape:stockid="Arrow2Mstart">
      <path
         transform="scale(0.6) translate(0,0)"
         d="M 8.7185878,4.0337352 L -2.2072895,0.016013256 L 8.7185884,-4.0017078 C 6.9730900,-1.6296469 6.9831476,1.6157441 8.7185878,4.0337352 z "
         style="fill-rule:evenodd;stroke-width:0.62500000;stroke-linejoin:round"
         id="path10062" />
    </marker>
    <marker
       style="overflow:visible"
       id="Arrow2Sstart"
       refX="0.0"
       refY="0.0"
       orient="auto"
       inkscape:stockid="Arrow2Sstart">
      <path
         transform="scale(0.3) translate(-2.3,0)"
         d="M 8.7185878,4.0337352 L -2.2072895,0.016013256 L 8.7185884,-4.0017078 C 6.9730900,-1.6296469 6.9831476,1.6157441 8.7185878,4.0337352 z "
         style="fill-rule:evenodd;stroke-width:0.62500000;stroke-linejoin:round"
         id="path10068" />
    </marker>
    <marker
       style="overflow:visible;"
       id="Arrow2Send"
       refX="0.0"
       refY="0.0"
       orient="auto"
       inkscape:stockid="Arrow2Send">
      <path
         transform="scale(0.3) rotate(180) translate(-2.3,0)"
         d="M 8.7185878,4.0337352 L -2.2072895,0.016013256 L 8.7185884,-4.0017078 C 6.9730900,-1.6296469 6.9831476,1.6157441 8.7185878,4.0337352 z "
         style="fill-rule:evenodd;stroke-width:0.62500000;stroke-linejoin:round;"
         id="path10071" />
    </marker>
    <marker
       style="overflow:visible"
       id="StopL"
       refX="0.0"
       refY="0.0"
       orient="auto"
       inkscape:stockid="StopL">
      <path
         transform="scale(0.8)"
         style="fill:none;fill-opacity:0.75000000;fill-rule:evenodd;stroke:#000000;stroke-width:1.0pt"
         d="M 0.0,5.65 L 0.0,-5.65"
         id="path3928" />
    </marker>
    <marker
       style="overflow:visible;"
       id="Arrow1Lend"
       refX="0.0"
       refY="0.0"
       orient="auto"
       inkscape:stockid="Arrow1Lend">
      <path
         transform="scale(0.8) rotate(180) translate(12.5,0)"
         style="fill-rule:evenodd;stroke:#000000;stroke-width:1.0pt;"
         d="M 0.0,0.0 L 5.0,-5.0 L -12.5,0.0 L 5.0,5.0 L 0.0,0.0 z "
         id="path3762" />
    </marker>
    <marker
       style="overflow:visible;"
       id="Arrow2Mend"
       refX="0.0"
       refY="0.0"
       orient="auto"
       inkscape:stockid="Arrow2Mend">
      <path
         transform="scale(0.6) rotate(180) translate(0,0)"
         d="M 8.7185878,4.0337352 L -2.2072895,0.016013256 L 8.7185884,-4.0017078 C 6.9730900,-1.6296469 6.9831476,1.6157441 8.7185878,4.0337352 z "
         style="fill-rule:evenodd;stroke-width:0.62500000;stroke-linejoin:round;"
         id="path3786" />
    </marker>
  </defs>
  <metadata
     id="metadata7">
    <rdf:RDF>
      <cc:Work
         rdf:about="">
        <dc:format>image/svg+xml</dc:format>
        <dc:type
           rdf:resource="http://purl.org/dc/dcmitype/StillImage" />
        <dc:title>Pyramide-Formen</dc:title>
        <dc:date>2013-11-22</dc:date>
        <dc:creator>
          <cc:Agent>
            <dc:title>Bernhard Grotz</dc:title>
          </cc:Agent>
        </dc:creator>
        <dc:rights>
          <cc:Agent>
            <dc:title>Bernhard Grotz</dc:title>
          </cc:Agent>
        </dc:rights>
        <dc:publisher>
          <cc:Agent>
            <dc:title>Bernhard Grotz</dc:title>
          </cc:Agent>
        </dc:publisher>
        <dc:language>de_DE</dc:language>
        <dc:subject>
          <rdf:Bag>
            <rdf:li>Mathematik</rdf:li>
            <rdf:li>Geometrie</rdf:li>
            <rdf:li>Geometrie</rdf:li>
            <rdf:li>Stereometrie</rdf:li>
            <rdf:li>Pyramide</rdf:li>
          </rdf:Bag>
        </dc:subject>
        <cc:license
           rdf:resource="http://creativecommons.org/licenses/by-nc-sa/3.0/" />
      </cc:Work>
      <cc:License
         rdf:about="http://creativecommons.org/licenses/by-nc-sa/3.0/">
        <cc:permits
           rdf:resource="http://creativecommons.org/ns#Reproduction" />
        <cc:permits
           rdf:resource="http://creativecommons.org/ns#Distribution" />
        <cc:requires
           rdf:resource="http://creativecommons.org/ns#Notice" />
        <cc:requires
           rdf:resource="http://creativecommons.org/ns#Attribution" />
        <cc:prohibits
           rdf:resource="http://creativecommons.org/ns#CommercialUse" />
        <cc:permits
           rdf:resource="http://creativecommons.org/ns#DerivativeWorks" />
        <cc:requires
           rdf:resource="http://creativecommons.org/ns#ShareAlike" />
      </cc:License>
    </rdf:RDF>
  </metadata>
  <g
     id="layer1"
     inkscape:groupmode="layer"
     inkscape:label="Ebene 1">
    <g
       ns0:text="$\\vec{c}$"
       ns0:preamble="/home/waldgeist/data/sphinx/inkscape-preamble.tex"
       transform="matrix(3.3737494,0,0,3.3737494,-254.33287,-175.74676)"
       id="g4492">
      <defs
         id="defs4494">
        <g
           id="g4496">
          <symbol
             style="overflow:visible"
             overflow="visible"
             id="textext-23843a60-0">
            <path
               inkscape:connector-curvature="0"
               style="stroke:none"
               d="m 5.359375,-5.9375 c -0.140625,0.140625 -0.46875,0.421875 -0.46875,0.59375 0,0.09375 0.09375,0.203125 0.1875,0.203125 0.09375,0 0.140625,-0.078125 0.203125,-0.140625 C 5.390625,-5.421875 5.625,-5.703125 6.0625,-5.921875 6.125,-5.96875 6.234375,-6.015625 6.234375,-6.125 6.234375,-6.234375 6.15625,-6.28125 6.09375,-6.328125 5.875,-6.484375 5.765625,-6.65625 5.6875,-6.890625 5.65625,-6.984375 5.625,-7.125 5.484375,-7.125 c -0.140625,0 -0.203125,0.140625 -0.203125,0.21875 0,0.046875 0.078125,0.359375 0.234375,0.578125 l -3.359375,0 c -0.15625,0 -0.34375,0 -0.34375,0.203125 0,0.1875 0.1875,0.1875 0.34375,0.1875 z m 0,0"
               id="path4499" />
          </symbol>
          <symbol
             style="overflow:visible"
             overflow="visible"
             id="textext-23843a60-1">
            <path
               inkscape:connector-curvature="0"
               style="stroke:none"
               d="m 3.953125,-3.78125 c -0.171875,0 -0.296875,0 -0.4375,0.125 -0.171875,0.15625 -0.1875,0.328125 -0.1875,0.390625 0,0.25 0.1875,0.359375 0.375,0.359375 0.28125,0 0.546875,-0.25 0.546875,-0.640625 0,-0.484375 -0.46875,-0.859375 -1.171875,-0.859375 -1.34375,0 -2.671875,1.421875 -2.671875,2.828125 0,0.90625 0.578125,1.6875 1.625,1.6875 1.421875,0 2.25,-1.0625 2.25,-1.171875 0,-0.0625 -0.046875,-0.140625 -0.109375,-0.140625 -0.0625,0 -0.078125,0.03125 -0.140625,0.109375 -0.78125,0.984375 -1.875,0.984375 -1.984375,0.984375 -0.625,0 -0.90625,-0.484375 -0.90625,-1.09375 0,-0.40625 0.203125,-1.375 0.546875,-1.984375 0.3125,-0.578125 0.859375,-1 1.40625,-1 0.328125,0 0.71875,0.125 0.859375,0.40625 z m 0,0"
               id="path4502" />
          </symbol>
        </g>
      </defs>
      <g
         id="textext-23843a60-2">
        <g
           style="fill:#000000;fill-opacity:1"
           id="g4505" />
        <g
           style="fill:#000000;fill-opacity:1"
           id="g4509" />
      </g>
    </g>
    <rect
       inkscape:export-ydpi="150"
       inkscape:export-xdpi="150"
       inkscape:export-filename="/home/waldgeist/data/pics/Homepage/mathematik/geometrie/pyramide-formen.png"
       style="color:#000000;fill:#ffffff;fill-opacity:1;fill-rule:nonzero;stroke:#ffffff;stroke-width:2.39586639;stroke-linecap:round;stroke-linejoin:bevel;stroke-miterlimit:4;stroke-opacity:1;stroke-dasharray:none;stroke-dashoffset:0;marker:none;visibility:visible;display:inline;overflow:visible;enable-background:accumulate"
       id="rect4674-6"
       width="718.96014"
       height="278.21442"
       x="12.567165"
       y="387.07388"
       ry="3.0317945" />
    <path
       style="fill:#f9f9f9;stroke:none;stroke-width:1px;stroke-linecap:butt;stroke-linejoin:miter;stroke-opacity:1"
       d="m 520.04914,631.06165 91.79981,-209.15238 91.79977,129.95411 -137.75,0 z"
       id="path4583"
       inkscape:connector-curvature="0"
       inkscape:export-filename="/home/waldgeist/data/pics/Homepage/mathematik/geometrie/pyramide-formen.png"
       inkscape:export-xdpi="150"
       inkscape:export-ydpi="150" />
    <path
       style="fill:#f9f9f9;stroke:none;stroke-width:1px;stroke-linecap:butt;stroke-linejoin:miter;stroke-opacity:1"
       d="m 277.38793,633.79592 81.76716,-211.88665 81.76712,167.34823 -137.75001,0 -25.78427,44.53842"
       id="path4581"
       inkscape:connector-curvature="0"
       inkscape:export-filename="/home/waldgeist/data/pics/Homepage/mathematik/geometrie/pyramide-formen.png"
       inkscape:export-xdpi="150"
       inkscape:export-ydpi="150" />
    <path
       style="fill:#f9f9f9;stroke:none;stroke-width:1px;stroke-linecap:butt;stroke-linejoin:miter;stroke-opacity:1"
       d="M 30.670302,630.45292 104.27009,421.90927 177.86983,630.45292 104.27007,567.36658 30.670302,630.45292"
       id="path4579"
       inkscape:connector-curvature="0"
       inkscape:export-filename="/home/waldgeist/data/pics/Homepage/mathematik/geometrie/pyramide-formen.png"
       inkscape:export-xdpi="150"
       inkscape:export-ydpi="150" />
    <g
       id="g5200"
       transform="translate(0,0.49258131)"
       inkscape:export-filename="/home/waldgeist/data/pics/Homepage/mathematik/geometrie/pyramide-formen.png"
       inkscape:export-xdpi="150"
       inkscape:export-ydpi="150">
      <path
         style="fill:none;stroke:#808080;stroke-width:3;stroke-linecap:round;stroke-linejoin:round;stroke-miterlimit:4;stroke-opacity:1;stroke-dasharray:2.99999995, 5.99999991;stroke-dashoffset:0"
         d="m 104.27007,566.874 2e-5,-145.45731"
         id="path4053"
         inkscape:connector-curvature="0"
         sodipodi:nodetypes="cc" />
      <path
         sodipodi:nodetypes="cccc"
         inkscape:connector-curvature="0"
         id="path3233"
         d="m 30.670302,629.96034 147.199528,0 -73.59976,-63.08634 z"
         style="fill:#b3b3b3;stroke:#808080;stroke-width:3;stroke-linecap:round;stroke-linejoin:round;stroke-miterlimit:4;stroke-opacity:1;stroke-dasharray:3, 6;stroke-dashoffset:0" />
      <path
         style="fill:none;stroke:#000000;stroke-width:3;stroke-linecap:round;stroke-linejoin:round;stroke-opacity:1"
         d="M 177.86983,629.96034 104.27009,421.41669"
         id="path4049"
         inkscape:connector-curvature="0"
         sodipodi:nodetypes="cc" />
      <path
         style="fill:none;stroke:#000000;stroke-width:3;stroke-linecap:round;stroke-linejoin:round;stroke-opacity:1"
         d="m 30.670302,629.96034 145.457308,10e-6"
         id="path4224"
         inkscape:connector-curvature="0"
         sodipodi:nodetypes="cc" />
      <path
         sodipodi:nodetypes="cc"
         inkscape:connector-curvature="0"
         id="path4273"
         d="M 30.670302,629.96034 104.27009,421.41669"
         style="fill:none;stroke:#000000;stroke-width:3;stroke-linecap:round;stroke-linejoin:round;stroke-opacity:1" />
    </g>
    <path
       style="fill:#b3b3b3;fill-opacity:1;stroke:none"
       d="m 520.04914,631.06165 45.84958,-79.19827 137.75,0 -45.84956,79.19827 z"
       id="path4114"
       inkscape:connector-curvature="0"
       inkscape:transform-center-x="-91.79979"
       inkscape:transform-center-y="-39.599135"
       inkscape:export-filename="/home/waldgeist/data/pics/Homepage/mathematik/geometrie/pyramide-formen.png"
       inkscape:export-xdpi="150"
       inkscape:export-ydpi="150" />
    <path
       style="fill:#b3b3b3;fill-opacity:1;stroke:none"
       d="m 277.38793,633.79592 25.78427,-44.53842 137.75,0 -25.78425,44.53842 z"
       id="path4114-9"
       inkscape:connector-curvature="0"
       inkscape:transform-center-x="-81.767135"
       inkscape:transform-center-y="-22.26921"
       inkscape:export-filename="/home/waldgeist/data/pics/Homepage/mathematik/geometrie/pyramide-formen.png"
       inkscape:export-xdpi="150"
       inkscape:export-ydpi="150" />
    <path
       style="fill:none;stroke:#808080;stroke-width:3;stroke-linecap:round;stroke-linejoin:round;stroke-miterlimit:4;stroke-opacity:1;stroke-dasharray:2.99999994, 5.99999989;stroke-dashoffset:0"
       d="m 303.1722,589.2575 137.75,0"
       id="path4496"
       inkscape:connector-curvature="0"
       sodipodi:nodetypes="cc"
       inkscape:export-filename="/home/waldgeist/data/pics/Homepage/mathematik/geometrie/pyramide-formen.png"
       inkscape:export-xdpi="150"
       inkscape:export-ydpi="150" />
    <path
       sodipodi:nodetypes="cc"
       inkscape:connector-curvature="0"
       id="path4049-7"
       d="M 415.13795,633.79592 359.15509,421.90927"
       style="fill:none;stroke:#000000;stroke-width:3;stroke-linecap:round;stroke-linejoin:round;stroke-opacity:1"
       inkscape:export-filename="/home/waldgeist/data/pics/Homepage/mathematik/geometrie/pyramide-formen.png"
       inkscape:export-xdpi="150"
       inkscape:export-ydpi="150" />
    <path
       sodipodi:nodetypes="cc"
       inkscape:connector-curvature="0"
       id="path4224-1"
       d="m 277.38793,633.79592 137.75002,0"
       style="fill:none;stroke:#000000;stroke-width:3;stroke-linecap:round;stroke-linejoin:round;stroke-opacity:1"
       inkscape:export-filename="/home/waldgeist/data/pics/Homepage/mathematik/geometrie/pyramide-formen.png"
       inkscape:export-xdpi="150"
       inkscape:export-ydpi="150" />
    <path
       style="fill:none;stroke:#000000;stroke-width:3;stroke-linecap:round;stroke-linejoin:round;stroke-opacity:1"
       d="M 415.13794,633.79592 440.92221,589.2575"
       id="path4273-7"
       inkscape:connector-curvature="0"
       sodipodi:nodetypes="cc"
       inkscape:export-filename="/home/waldgeist/data/pics/Homepage/mathematik/geometrie/pyramide-formen.png"
       inkscape:export-xdpi="150"
       inkscape:export-ydpi="150" />
    <path
       style="fill:none;stroke:#000000;stroke-width:3;stroke-linecap:round;stroke-linejoin:round;stroke-opacity:1"
       d="M 359.15509,421.90927 440.92221,589.2575"
       id="path4484"
       inkscape:connector-curvature="0"
       sodipodi:nodetypes="cc"
       inkscape:export-filename="/home/waldgeist/data/pics/Homepage/mathematik/geometrie/pyramide-formen.png"
       inkscape:export-xdpi="150"
       inkscape:export-ydpi="150" />
    <path
       style="fill:none;stroke:#808080;stroke-width:3;stroke-linecap:round;stroke-linejoin:round;stroke-miterlimit:4;stroke-opacity:1;stroke-dasharray:2.99999994, 5.99999989;stroke-dashoffset:0"
       d="M 303.1722,589.2575 359.15509,421.90927"
       id="path4488"
       inkscape:connector-curvature="0"
       sodipodi:nodetypes="cc"
       inkscape:export-filename="/home/waldgeist/data/pics/Homepage/mathematik/geometrie/pyramide-formen.png"
       inkscape:export-xdpi="150"
       inkscape:export-ydpi="150" />
    <path
       sodipodi:nodetypes="cc"
       inkscape:connector-curvature="0"
       id="path4494"
       d="M 277.38793,633.79592 303.1722,589.2575"
       style="fill:none;stroke:#808080;stroke-width:3;stroke-linecap:round;stroke-linejoin:round;stroke-miterlimit:4;stroke-opacity:1;stroke-dasharray:2.99999994, 5.99999989;stroke-dashoffset:0"
       inkscape:export-filename="/home/waldgeist/data/pics/Homepage/mathematik/geometrie/pyramide-formen.png"
       inkscape:export-xdpi="150"
       inkscape:export-ydpi="150" />
    <path
       sodipodi:nodetypes="cc"
       inkscape:connector-curvature="0"
       id="path4486"
       d="M 359.15509,421.90927 277.38793,633.79592"
       style="fill:none;stroke:#000000;stroke-width:3;stroke-linecap:round;stroke-linejoin:round;stroke-opacity:1"
       inkscape:export-filename="/home/waldgeist/data/pics/Homepage/mathematik/geometrie/pyramide-formen.png"
       inkscape:export-xdpi="150"
       inkscape:export-ydpi="150" />
    <path
       sodipodi:nodetypes="cc"
       inkscape:connector-curvature="0"
       id="path4505"
       d="M 565.89872,551.86338 611.84895,421.90927"
       style="fill:none;stroke:#808080;stroke-width:3;stroke-linecap:round;stroke-linejoin:round;stroke-miterlimit:4;stroke-opacity:1;stroke-dasharray:2.99999994, 5.99999989;stroke-dashoffset:0"
       inkscape:export-filename="/home/waldgeist/data/pics/Homepage/mathematik/geometrie/pyramide-formen.png"
       inkscape:export-xdpi="150"
       inkscape:export-ydpi="150" />
    <path
       sodipodi:nodetypes="cc"
       inkscape:connector-curvature="0"
       id="path4494-2"
       d="m 520.04914,631.06165 45.84958,-79.19827"
       style="fill:none;stroke:#808080;stroke-width:3;stroke-linecap:round;stroke-linejoin:round;stroke-miterlimit:4;stroke-opacity:1;stroke-dasharray:2.99999994, 5.99999989;stroke-dashoffset:0"
       inkscape:export-filename="/home/waldgeist/data/pics/Homepage/mathematik/geometrie/pyramide-formen.png"
       inkscape:export-xdpi="150"
       inkscape:export-ydpi="150" />
    <path
       style="fill:none;stroke:#808080;stroke-width:3;stroke-linecap:round;stroke-linejoin:round;stroke-miterlimit:4;stroke-opacity:1;stroke-dasharray:2.99999994, 5.99999989;stroke-dashoffset:0"
       d="m 565.89872,551.86338 137.75,0"
       id="path4496-4"
       inkscape:connector-curvature="0"
       sodipodi:nodetypes="cc"
       inkscape:export-filename="/home/waldgeist/data/pics/Homepage/mathematik/geometrie/pyramide-formen.png"
       inkscape:export-xdpi="150"
       inkscape:export-ydpi="150" />
    <path
       style="fill:none;stroke:#000000;stroke-width:3;stroke-linecap:round;stroke-linejoin:round;stroke-opacity:1"
       d="M 703.64872,551.86338 611.84895,421.90927"
       id="path4503"
       inkscape:connector-curvature="0"
       sodipodi:nodetypes="cc"
       inkscape:export-filename="/home/waldgeist/data/pics/Homepage/mathematik/geometrie/pyramide-formen.png"
       inkscape:export-xdpi="150"
       inkscape:export-ydpi="150" />
    <path
       style="fill:none;stroke:#000000;stroke-width:3;stroke-linecap:round;stroke-linejoin:round;stroke-opacity:1"
       d="M 657.79916,631.06165 611.84895,421.90927"
       id="path4498"
       inkscape:connector-curvature="0"
       sodipodi:nodetypes="cc"
       inkscape:export-filename="/home/waldgeist/data/pics/Homepage/mathematik/geometrie/pyramide-formen.png"
       inkscape:export-xdpi="150"
       inkscape:export-ydpi="150" />
    <path
       sodipodi:nodetypes="cc"
       inkscape:connector-curvature="0"
       id="path4500"
       d="M 520.04914,631.06165 611.84895,421.90927"
       style="fill:none;stroke:#000000;stroke-width:3;stroke-linecap:round;stroke-linejoin:round;stroke-opacity:1"
       inkscape:export-filename="/home/waldgeist/data/pics/Homepage/mathematik/geometrie/pyramide-formen.png"
       inkscape:export-xdpi="150"
       inkscape:export-ydpi="150" />
    <path
       sodipodi:nodetypes="cc"
       inkscape:connector-curvature="0"
       id="path4224-1-5"
       d="m 520.04914,631.06165 137.75002,0"
       style="fill:none;stroke:#000000;stroke-width:3;stroke-linecap:round;stroke-linejoin:round;stroke-opacity:1"
       inkscape:export-filename="/home/waldgeist/data/pics/Homepage/mathematik/geometrie/pyramide-formen.png"
       inkscape:export-xdpi="150"
       inkscape:export-ydpi="150" />
    <path
       style="fill:none;stroke:#000000;stroke-width:3;stroke-linecap:round;stroke-linejoin:round;stroke-opacity:1"
       d="m 657.79916,631.06165 45.84956,-79.19827"
       id="path4273-7-0"
       inkscape:connector-curvature="0"
       sodipodi:nodetypes="cc"
       inkscape:export-filename="/home/waldgeist/data/pics/Homepage/mathematik/geometrie/pyramide-formen.png"
       inkscape:export-xdpi="150"
       inkscape:export-ydpi="150" />
  </g>
</svg>

<svg xmlns="http://www.w3.org/2000/svg" width="210mm" height="297mm"><title>Pyramide-Formen</title><rect style="marker:none" width="718.96" height="278.214" x="12.567" y="387.074" ry="3.032" color="#000" fill="#fff" stroke="#fff" stroke-width="2.396" stroke-linecap="round" stroke-linejoin="bevel" overflow="visible"/><path d="M520.05 631.062l91.799-209.153 91.8 129.954h-137.75zM277.388 633.796l81.767-211.887 81.767 167.349h-137.75l-25.784 44.538M30.67 630.453l73.6-208.544 73.6 208.544-73.6-63.086-73.6 63.086" fill="#f9f9f9"/><g stroke-width="3" stroke-linecap="round" stroke-linejoin="round"><path d="M104.27 567.367V421.909" fill="none" stroke="gray" stroke-dasharray="2.99999995,5.99999991"/><path d="M30.67 630.453h147.2l-73.6-63.086z" fill="#b3b3b3" stroke="gray" stroke-dasharray="3,6"/><path d="M177.87 630.453l-73.6-208.544M30.67 630.453h145.458M30.67 630.453l73.6-208.544" fill="none" stroke="#000"/></g><path d="M520.05 631.062l45.849-79.199h137.75l-45.85 79.199zM277.388 633.796l25.784-44.539h137.75l-25.784 44.539z" fill="#b3b3b3"/><path d="M303.172 589.258h137.75" fill="none" stroke="gray" stroke-width="3" stroke-linecap="round" stroke-linejoin="round" stroke-dasharray="2.99999994,5.99999989"/><path d="M415.138 633.796l-55.983-211.887M277.388 633.796h137.75M415.138 633.796l25.784-44.538M359.155 421.91l81.767 167.348" fill="none" stroke="#000" stroke-width="3" stroke-linecap="round" stroke-linejoin="round"/><path d="M303.172 589.258l55.983-167.349M277.388 633.796l25.784-44.538" fill="none" stroke="gray" stroke-width="3" stroke-linecap="round" stroke-linejoin="round" stroke-dasharray="2.99999994,5.99999989"/><path d="M359.155 421.91l-81.767 211.886" fill="none" stroke="#000" stroke-width="3" stroke-linecap="round" stroke-linejoin="round"/><path d="M565.899 551.863l45.95-129.954M520.05 631.062l45.849-79.199M565.899 551.863h137.75" fill="none" stroke="gray" stroke-width="3" stroke-linecap="round" stroke-linejoin="round" stroke-dasharray="2.99999994,5.99999989"/><path d="M703.649 551.863l-91.8-129.954M657.8 631.062l-45.951-209.153M520.05 631.062l91.799-209.153M520.05 631.062H657.8M657.8 631.062l45.849-79.199" fill="none" stroke="#000" stroke-width="3" stroke-linecap="round" stroke-linejoin="round"/></svg>
